X:282
T: Nongmin fanshen bushouqiong
N: C1779
O: China,Jiangsu Lishui
S: III, 428, 1)]
R: Xiaodiao]
M: 2/4
L: 1/16
K: C
c2c2G3A | c2c4A2 | d4e4 | A2c4A2 |
c2B2A4 | G4A2Ac | c2G2A4 | c2G4
Ac | c2G2c4 | d4e4 | d4e4 | A2c4A2 |
c2B2A4 | G4A2Ac | c2G2A2A2 | G8

@@@ Tune index: 6837
